svg/NEPAnode-EnergyInfrastructure/Geothermal.svg

<?xml version="1.0" encoding="UTF-8" standalone="no"?>
<!-- Created with Inkscape (http://www.inkscape.org/) -->

<svg
   xmlns:dc="http://purl.org/dc/elements/1.1/"
   xmlns:cc="http://creativecommons.org/ns#"
   xmlns:rdf="http://www.w3.org/1999/02/22-rdf-syntax-ns#"
   xmlns:svg="http://www.w3.org/2000/svg"
   xmlns="http://www.w3.org/2000/svg"
   xmlns:sodipodi="http://sodipodi.sourceforge.net/DTD/sodipodi-0.dtd"
   xmlns:inkscape="http://www.inkscape.org/namespaces/inkscape"
   version="1.1"
   width="250"
   height="250"
   viewBox="0 0 0.34722222 0.34722222"
   id="svg2"
   inkscape:version="0.48.4 r9939"
   sodipodi:docname="Geothermal.svg">
  <sodipodi:namedview
     pagecolor="#ffffff"
     bordercolor="#666666"
     borderopacity="1"
     objecttolerance="10"
     gridtolerance="10"
     guidetolerance="10"
     inkscape:pageopacity="0"
     inkscape:pageshadow="2"
     inkscape:window-width="1360"
     inkscape:window-height="744"
     id="namedview9"
     showgrid="false"
     inkscape:zoom="0.944"
     inkscape:cx="125"
     inkscape:cy="125"
     inkscape:window-x="0"
     inkscape:window-y="24"
     inkscape:window-maximized="1"
     inkscape:current-layer="svg2" />
  <title
     id="title4">SVG drawing</title>
  <desc
     id="desc6">This was produced by version 4.1 of GNU libplot, a free library for exporting 2-D vector graphics.</desc>
  <metadata
     id="metadata3395">
    <rdf:RDF>
      <cc:Work
         rdf:about="">
        <dc:format>image/svg+xml</dc:format>
        <dc:type
           rdf:resource="http://purl.org/dc/dcmitype/StillImage" />
        <dc:title>SVG drawing</dc:title>
      </cc:Work>
    </rdf:RDF>
  </metadata>
  <defs
     id="defs3393" />
  <g
     style="font-size:0.0555556px;font-style:normal;font-variant:normal;font-weight:normal;font-stretch:normal;line-height:125%;letter-spacing:0px;word-spacing:0px;fill:#000000;fill-opacity:1;stroke:none;font-family:Energy Infrastructure;-inkscape-font-specification:Energy Infrastructure"
     id="text7140">
    <path
       d="M 0.17455524,0.34436647 C 0.15094056,0.34436648 0.12870359,0.33984037 0.10784427,0.33078813 0.08698467,0.32173593 0.06888024,0.30953512 0.05353091,0.29418565 0.03818141,0.27883629 0.0259806,0.26073186 0.01692843,0.23987229 0.00787616,0.21901294 0.00335005,0.19677597 0.00335009,0.17316132 0.00335005,0.14954701 0.00787616,0.12731004 0.01692843,0.10645034 0.0259806,0.08559112 0.03818141,0.06748669 0.05353091,0.05213698 0.06888024,0.03678786 0.08698467,0.02458705 0.10784427,0.0155345 0.12870359,0.00648261 0.15094056,0.0019565 0.17455524,0.00195616 0.19816952,0.0019565 0.22040649,0.00648261 0.24126622,0.0155345 0.2621254,0.02458705 0.28022984,0.03678786 0.29557958,0.05213698 0.31092866,0.06748669 0.32312948,0.08559112 0.33218206,0.10645034 0.34123391,0.12731004 0.34576002,0.14954701 0.3457604,0.17316132 0.34576002,0.19677597 0.34123391,0.21901294 0.33218206,0.23987229 0.32312948,0.26073186 0.31092866,0.27883629 0.29557958,0.29418565 0.28022984,0.30953512 0.2621254,0.32173593 0.24126622,0.33078813 0.22040649,0.33984037 0.19816952,0.34436648 0.17455524,0.34436647 M 0.17455524,0.04623336 C 0.15684418,0.04623366 0.14031404,0.04957904 0.12496479,0.05626952 0.10961522,0.06296058 0.09623368,0.0720128 0.08482013,0.0834262 0.07340635,0.09484013 0.06435413,0.10822167 0.05766345,0.12357086 0.05097259,0.13892049 0.0476272,0.15545063 0.04762728,0.17316132 0.0476272,0.19047878 0.05097259,0.20700891 0.05766345,0.22275178 0.06435413,0.23810131 0.07340635,0.25148285 0.08482013,0.26289643 0.09623368,0.27431018 0.10961522,0.2833624 0.12496479,0.29005311 0.14031404,0.29674394 0.15684418,0.30008932 0.17455524,0.30008928 0.1922659,0.30008932 0.20879603,0.29674394 0.2241457,0.29005311 0.23949486,0.2833624 0.2528764,0.27431018 0.26429036,0.26289643 0.27570373,0.25148285 0.28475595,0.23810131 0.29144704,0.22275178 0.29813749,0.20700891 0.30148287,0.19047878 0.30148321,0.17316132 0.30148287,0.15545063 0.29813749,0.13892049 0.29144704,0.12357086 0.28475595,0.10822167 0.27570373,0.09484013 0.26429036,0.0834262 0.2528764,0.0720128 0.23949486,0.06296058 0.2241457,0.05626952 0.20879603,0.04957904 0.1922659,0.04623366 0.17455524,0.04623336 M 0.17455524,0.2144867 C 0.16314137,0.21448683 0.15330201,0.21055108 0.14503711,0.20267945 0.13677187,0.19441452 0.13263933,0.18457516 0.1326395,0.17316132 0.13263933,0.16174782 0.13677187,0.15190846 0.14503711,0.14364319 0.15330201,0.13537832 0.16314137,0.13124579 0.17455524,0.13124557 0.1859687,0.13124579 0.19580807,0.13537832 0.20407337,0.14364319 0.21233821,0.15190846 0.21647074,0.16174782 0.21647099,0.17316132 0.21647074,0.18457516 0.21233821,0.19441452 0.20407337,0.20267945 0.19580807,0.21055108 0.1859687,0.21448683 0.17455524,0.2144867"
       style="font-size:0.59036261px"
       id="path2987" />
  </g>
</svg>

<svg xmlns="http://www.w3.org/2000/svg" width="250" height="250" viewBox="0 0 0.34722222 0.34722222"><path d="m.175.344c-.024 0-.046-.005-.067-.014-.021-.009-.039-.021-.054-.037-.015-.015-.028-.033-.037-.054-.009-.021-.014-.043-.014-.067 0-.024.005-.046.014-.067.009-.021.021-.039.037-.054.015-.015.033-.028.054-.037.021-.009.043-.014.067-.014.024 0 .046.005.067.014.021.009.039.021.054.037.015.015.028.033.037.054.009.021.014.043.014.067 0 .024-.005.046-.014.067-.009.021-.021.039-.037.054-.015.015-.033.028-.054.037-.021.009-.043.014-.067.014m0-.298c-.018 0-.034.003-.05.001-.015.007-.029.016-.04.027-.011.011-.02.025-.027.04-.007.015-.001.032-.001.05 0 .017.003.034.001.05.007.015.016.029.027.04.011.011.025.02.04.027.015.007.032.001.05.001.018 0 .034-.003.05-.001.015-.007.029-.016.04-.027.011-.011.02-.025.027-.04.007-.016.001-.032.001-.05 0-.018-.003-.034-.001-.05-.007-.015-.016-.029-.027-.04-.011-.011-.025-.02-.04-.027-.015-.007-.032-.001-.05-.001m0 .168c-.011 0-.021-.004-.03-.012-.008-.008-.012-.018-.012-.03 0-.011.004-.021.012-.03.008-.008.018-.012.03-.012.011 0 .021.004.03.012.008.008.012.018.012.03 0 .011-.004.021-.012.03-.008.008-.018.012-.03.012"/></svg>
